X:1
T: The Earl of Fife's Strathspey
C:William Marshall
R:Strathspey
Q: 128
K:A
M:4/4
L:1/16
|:c2|AA3 A3F B4 B2c2|AA3 A3E A3B cA3|df3 ce3 B3A Bc3|AA3 A3F A4 A2c2|
AA3 A3F B4 B2c2|AA3 A3E A3B cA3|df3 ce3 B3A Bc3|AA3 A3F A4 A2f2|
ea3 ca3 Bb3 b3g|a3e agfg a3e a2c2|db3 ca3 B2b2 g2e2|ca3 Bg3 a4 A2fg|
a3c a2ga b2B2 B2fg|a3c e3c a3c e3c|d3e fedc dcBA B3c|AF3 F3E A6:|
